X: 40
T: Song Concerning a Dream of the Thunderbirds
C: Teton Sioux band 1911-1914
N: Derived from sioux040.krn
O: South Dakota, U.S.A.
N: Teton Sioux Music by Frances Densmore, 1918
Z: transcribed to **kern format by Craig Sapp
L: 1/16
M: 3/4
Q: 1/4=58
K: B clef=bass
%%linebreak <none>
E [I:setbarnb 1]| 
D2> D2 D2> B,2 A, A,2 C ||  
[M:2/4]B,2> B,2 B,3 A, ||  
[M:3/4]A,2 A, A, B,2 A, A,2< A,2 G, ||  
[M:2/4]G,4G,4- | 
G,7B, ||  
[M:3/4]A,2> A,2 A,2> G,2 G, G,2 G, ||  
[M:2/4]A,2 G, G,2< G,2 E, | 
D,4D,4 ||  
[M:3/4]D,8-D,3 F, | 
E,2> E,2 E,2> D,2 D, D,2 D, ||  
[M:2/4]E,2 D, D,2< D,2 A,, | 
G,,4G,,4 | 
G,,8- | 
G,,6 ]|:  
B, B, [I:setbarnb 15]||  
[M:3/4]B,2> B,2 B,2> A,2 A, A,2 A, ||  
[M:2/4](B, A,2) A,2< A,2 G, | 
G,4(G,4 | 
G,6)A, A, ||  
[M:3/4]A,2> A,2 (A,2 G,) G, G,2 G,3/ G,/ ||  
[M:2/4](A, G,2) G,2< G,2 E, | 
D,4D,4 ||  
[M:3/4]D,8-D,3 E, | 
E,2> E,2 E,2> D,2 D, D,2 E, ||  
[M:2/4]D,2> D,2 D,3 A,, | 
G,,4G,,4 | 
G,,8 | 
G,,6 :|]  



